X:5
T:Yankee Doodle
% Four-part piano arrangement for standard notation.
%%titlespace 30pt
%%LineSep 20pt
C:Dr. Schamburg/Old English Tune ca. 1755
S:From "The One Hundred and One Best Songs" / The Cable Company / 1919 / Chicago, Illinois
M:2/4
L:1/8
Q:1/4=120
%%staves [(1 2) (3 4)]
%%vocalfont Times-Roman 12
%%textfont Times-Roman 10
K:A
V:1 clef=treble
E | A A B c | A c B G | A A (B c) | A2 G E | A A
w:1. Fath'r and I went down to camp, A-long with Cap-tain Good-'in, And there we
w:2.~~And there we see a thou-sand men, As rich as Squire* Da-vid; And what they
w:3.~~And there was Cap-tain Wash-ing-ton, Up-on a slap-ping stal-lion, A-giv-ing
w:4.~~And then the feath-ers on his hat, They looked so ver-y fine, ah! I want-ed
V:2 clef=treble
E | C C D E | C E D D | C C (D E) | C2 D D | C C
V:3 clef=bass
%%MIDI transpose -24
%%jsastem=dn
e | a a g g | a a g b | a a (g g) | a2 b g | a a
V:4 clef=bass
%%MIDI transpose -24
%%jsastem=dn
e | A A e e | A A e e | A A (e e) | A2 e e | A A
V:1
B c | d c B>A | G E F G | A2 A z | "^CHORUS."F > G F E | F G AF |
w:saw the men and boys As thick as has-ty pud-din'.
w:wast-ed ev-'ry day, I wish it could be sav-ed. Yan-kee Doo-dle, keep it up,_
w:or-ders to his men; I guess there was a mil-lion.
w:pes-ki-ly to get To give to my Je-mi-ma.
V:2
D E | F E D>C | B, D D D | C2 C z | D > E D D | D E FD |
V:3
a a | a a f>f | e g a b | a2 a z | a > a a a | a a d'a |
V:4
A A | d d d>d | e e e e | A2 A z | d > d d d | d d d2 |
V:1
E>F E D | C>D E z | F>G F E | F G A F | E A G B | A2 A |]
w:
w:Yan-kee Doo-dle dan\-* dy, Mind the mu-sic and the step, And with the girls be hand-y.
V:2
C>D C B, | A,>B, C z | D>E D D | D E F D | C C D D | C2 C |]
V:3
a>a a a | e2 a z | a>a a a | a a a a | a a b g | a2 a |]
V:4
A>A A A | A2 A z | d>d d d | d d d d | e e e e | A2 A |]
W:5 And there I see a swamping gun, Large as a log of maple, Upon a
W:mighty little cart; A load for father's cattle.
W:6 And every time they fired it off, It took a horn of powder; It made a
W:noise like father's gun, Only a nation louder.
W:7 And there I see a little keg, Its head all made of leather; They knocked
W:upon't with little sticks, To call the folks together.
W:8 And Cap'n Davis had a gun, He kind o' clapt his hand on't; And stuck a
W:crooked stabbing-iron Upon the little end on't.
W:9 The troopers, too, would gallop up And fire right in our faces; It scared
W:me almost half to death To see them run such races.
W:10 It scared me so I hooked it off, Nor stopped, as I remember, Nor turned
W:about till I got home, Locked up in mother's chamber.

%%newpage

